X:19
T:George Brown's Bonvivant
S:American Veteran Fifer, #19
C:Arr. by A.F. Hopkins, National Fife Major
M:2/4
L:1/16
Q:1/8=180
K:G 
%%MIDI program 72
%%MIDI transpose 8
%%MIDI ratio 3 1
|: G2ge d2ed | B2ge dBAB | G2ge d2ed | BAGB AGED |
G2ge d2ed | B2ge dBAB | G2ge d2ed | BGAB G4 :|
|: B2e2 e2>g2 | fgaf gfed | B2e2 e2>g2 | fgaf g2>e2 |
B2e2 e2>g2 | fgaf gfed | efga bagf | gafd e4 :|



